brandFactory_export/1.Light/Cerrar_1Light.svg

<?xml version="1.0" encoding="UTF-8"?>
<svg width="24px" height="24px" viewBox="0 0 24 24" version="1.1" xmlns="http://www.w3.org/2000/svg" xmlns:xlink="http://www.w3.org/1999/xlink">
    <title>1.Light/Cerrar_1Light</title>
    <g id="Symbols" stroke="none" stroke-width="1" fill="none" fill-rule="evenodd">
        <g id="1.Light/Cerrar_1Light" fill="#5CB615" fill-rule="nonzero">
            <path d="M12.9647059,11.8453782 L23.4184874,1.37478992 C23.7243697,1.08907563 23.7378151,0.611764706 23.4521008,0.305882353 C23.4420168,0.292436975 23.4285714,0.282352941 23.4184874,0.272268908 C23.1327731,-0.0336134454 22.6554622,-0.0470588235 22.3495798,0.238655462 C22.3361345,0.248739496 22.3260504,0.262184874 22.3159664,0.272268908 L11.8453782,10.7260504 L1.37478992,0.272268908 C1.08907563,-0.0336134454 0.611764706,-0.0470588235 0.305882353,0.238655462 C0.292436975,0.248739496 0.282352941,0.262184874 0.272268908,0.272268908 C-0.0336134454,0.557983193 -0.0470588235,1.03529412 0.238655462,1.34117647 C0.248739496,1.35462185 0.262184874,1.36470588 0.272268908,1.37478992 L10.7260504,11.8453782 L0.272268908,22.3159664 C-0.0336134454,22.6016807 -0.0470588235,23.0789916 0.238655462,23.3848739 C0.248739496,23.3983193 0.262184874,23.4084034 0.272268908,23.4184874 C0.416806723,23.5697479 0.61512605,23.6571429 0.823529412,23.6537815 C1.03193277,23.6571429 1.23361345,23.5697479 1.37478992,23.4184874 L11.8453782,12.9647059 L22.3159664,23.4184874 C22.6016807,23.7243697 23.0789916,23.7378151 23.3848739,23.4521008 C23.3983193,23.4420168 23.4084034,23.4285714 23.4184874,23.4184874 C23.7243697,23.1327731 23.7378151,22.6554622 23.4521008,22.3495798 C23.4420168,22.3361345 23.4285714,22.3260504 23.4184874,22.3159664 L12.9647059,11.8453782 Z" id="Path"></path>
        </g>
    </g>
</svg>

<svg width="24" height="24" viewBox="0 0 24 24" xmlns="http://www.w3.org/2000/svg"><path d="M12.965 11.845l10.453-10.47a.755.755 0 00.034-1.07c-.01-.013-.023-.023-.034-.033A.755.755 0 0022.35.24c-.014.01-.024.023-.034.033l-10.47 10.454L1.374.272A.755.755 0 00.305.24C.293.249.283.262.273.272a.755.755 0 00-.033 1.07c.01.013.023.023.033.033l10.454 10.47L.272 22.316a.755.755 0 00-.033 1.069c.01.013.023.023.033.033a.747.747 0 00.552.236.742.742 0 00.55-.236l10.471-10.453 10.471 10.453a.755.755 0 001.069.034c.013-.01.023-.023.033-.034a.755.755 0 00.034-1.068c-.01-.014-.023-.024-.034-.034l-10.453-10.47z" fill="#5CB615" fill-rule="nonzero"/></svg>
